X: 1
T:Farewell to Leitrim
R:reel
D:Altan: Blackwater
Z:id:hn-reel-771
M:C|
K:Dmix
d2AG FADF|Ec~c2 Ec~c2|(3dcB cA BGAG|FDEF DEFA|
d2AG FADF|(3EFG AB c2Bc|(3dcB cA BGAF|GFEG FDDe||
fd~d2 fdad|fd~d2 ^cdeg|fd~d2 fdad|^ceag fdde|
fd~d2 adfd|e=c~c2 gceg|afge fded|^ceaf g2fe||
